X: 110
T: Diao shi de yanzhao At the table with a carved shape of eight lions
%%abc-version 2.0
%%abcx-abcm2ps-target-version 5.9.1 (29 Sep 2008)
%%abc-creator hum2abc beta
%%abcx-conversion-date 2013/10/02 07:44:27
%%abc-edited-by Helmut Schaffrath
%%humdrum-veritas 3903828924
%%humdrum-veritas-data 2893868438
%%continueall 1
%%barnumbers 0
L: 1/8
M: 2/4
K: C
^A G=A2 [I:setbarnb 1]| 
A c A G | 
E E E A | 
E CA,2 | 
A, A, A, C/ D/ | 
E E E E | 
E E A3/ c/ | 
E CA,2 | 
^A G=A2 | 
A c A G | 
EA2c | 
A4 |]  



